X: 21531
T: Whistle o'er the leave o't
%R: strathspey
B: James Oswald "The Caledonian Pocket Companion" v.2 p.153 #1
Z: 2018 John Chambers <jc:trillian.mit.edu>
N: The two sections are basically the same tune, as a reel and then as a jig.
N: In bars 10,11, the low notes starting with the B, have faint "ghost" notes 1 and 2 octaves higher,
N: presumably pencilled in as a suggestion to players that lack the low notes on their instruments.
M: C|
L: 1/16
K: G
|: "_Lively"\
G3DE3G TB3AB4 | d3eB3g TA3GE4 |\
G3DE3G TB3AB2g2 | GG3 B3G TA4G4 ::\
d2(ef) g3d Te3dB4 | d3eB3g TA3GE4 |
g3be3g d3eB2g2 | GG3 B3G TA4G4 ::\
G3BA3c B3GA3c | B3GA3E G3B,A,4 |\
G,3B,A,3C B,3DG2B2 | eB3 d3G TA4G4 :|
|:\
(GABc) d3g Te3dTB4 | c3AB3G A3GTE4 |\
TB3(A/B/) Tc3(B/c/) d2(ef) b2(ag) | dG3 B3G TA4G4 ::\
GB3 d3B d3B b3g | GB3 d3B c3A a3c |
GB3 d3B g3b a3g | eg3 B3g TA4G4 ::\
d3ge3g dg3TB4 | d3g (edB2) A3B E4 |\
(ga)b2 (ef)g2 d3e B3g | GG3 B3G TA4 G4 :|


